X: 31689
T: Pasacáis Del Xarreru
R: jig
M: 6/8
K: Gmajor
|:D2B BAB|c2c AGE|D2A AGA|B2B AGE|
D2B BAB|c2c ABc|ded cBA|1 B2B AGE:|2 G3G2d||
|:dBd dBd|cBA ABc|DEG ABc|BAG d2B|
d2B dBd|cBA ABc|DEG cBA|1 G3G2d:|2 G6||

